X:3997
T:Deil Stick da Minister
R:reel
P:Play Twice
M:C|
L:1/8
K:D
|: "D"Adfd "A7"e2ce | "D"fdfd "G"g2eg | "D"fdfd "A7"e2ce | "G"d2ed "A7"cAA2 :|
|: "D"fgaf     gagf | "C"e=cgc   ecgc | "D"fgaf "A7"gece | "G"d2ed "A7"cAA2 :|
